src/assets/fontXp.svg

<svg width="900" height="600" xmlns="http://www.w3.org/2000/svg"><path fill="#2B2B2B" d="M0 0h900v600H0z"/><path d="m0 234 25-3.2c25-3.1 75-9.5 125-7.1 50 2.3 100 13.3 150 33.6 50 20.4 100 50 150 49.4 50-.7 100-31.7 150-22.2s100 59.5 150 68 100-24.5 125-41l25-16.5V0H0Z" fill="#5528fa"/><path d="m0 212 25-.7c25-.6 75-2 125-10.6 50-8.7 100-24.7 150-36.5 50-11.9 100-19.5 150-8.9 50 10.7 100 39.7 150 46.5 50 6.9 100-8.5 150-2.5s100 33.4 125 47l25 13.7V0H0Z" fill="#4b2f8c"/><path d="m0 120 25 4c25 4 75 12 125 17.5s100 8.5 150 3.2c50-5.4 100-19 150-28.2s100-13.8 150-11c50 2.8 100 13.2 150 9.2s100-22.4 125-31.5l25-9.2V0H0Z" fill="#2b2b2b"/></svg>

<svg id="visual" viewBox="0 0 900 600" width="900" height="600" xmlns="http://www.w3.org/2000/svg" xmlns:xlink="http://www.w3.org/1999/xlink" version="1.1"><rect x="0" y="0" width="900" height="600" fill="#2B2B2B"></rect><path d="M0 234L25 230.8C50 227.7 100 221.3 150 223.7C200 226 250 237 300 257.3C350 277.7 400 307.3 450 306.7C500 306 550 275 600 284.5C650 294 700 344 750 352.5C800 361 850 328 875 311.5L900 295L900 0L875 0C850 0 800 0 750 0C700 0 650 0 600 0C550 0 500 0 450 0C400 0 350 0 300 0C250 0 200 0 150 0C100 0 50 0 25 0L0 0Z" fill="#5528fa"></path><path d="M0 212L25 211.3C50 210.7 100 209.3 150 200.7C200 192 250 176 300 164.2C350 152.3 400 144.7 450 155.3C500 166 550 195 600 201.8C650 208.7 700 193.3 750 199.3C800 205.3 850 232.7 875 246.3L900 260L900 0L875 0C850 0 800 0 750 0C700 0 650 0 600 0C550 0 500 0 450 0C400 0 350 0 300 0C250 0 200 0 150 0C100 0 50 0 25 0L0 0Z" fill="#4b2f8c"></path><path d="M0 120L25 124C50 128 100 136 150 141.5C200 147 250 150 300 144.7C350 139.3 400 125.7 450 116.5C500 107.3 550 102.7 600 105.5C650 108.3 700 118.7 750 114.7C800 110.7 850 92.3 875 83.2L900 74L900 0L875 0C850 0 800 0 750 0C700 0 650 0 600 0C550 0 500 0 450 0C400 0 350 0 300 0C250 0 200 0 150 0C100 0 50 0 25 0L0 0Z" fill="#2b2b2b"></path></svg>
